modules/stroke-7/icons/box2.svg

<?xml version="1.0" encoding="utf-8"?>
<!-- Generated by IcoMoon.io -->
<!DOCTYPE svg PUBLIC "-//W3C//DTD SVG 1.1//EN" "http://www.w3.org/Graphics/SVG/1.1/DTD/svg11.dtd">
<svg version="1.1" xmlns="http://www.w3.org/2000/svg" xmlns:xlink="http://www.w3.org/1999/xlink" width="32" height="32" viewBox="0 0 32 32">
<g id="icomoon-ignore">
</g>
<path d="M29.871 6.026l-13.871-5.1-14.394 5.283v19.642l14.394 5.222 14.394-5.222v-19.634l-0.524-0.192zM15.467 29.746l-12.795-4.642v-17.747l12.795 4.642v17.747zM16 11.058l-12.326-4.472 12.326-4.524 12.315 4.528-12.315 4.468zM29.328 25.104l-12.795 4.642v-17.747l12.795-4.623v17.728z" fill="#000000"></path>
</svg>

<svg xmlns="http://www.w3.org/2000/svg" width="32" height="32" viewBox="0 0 32 32"><path d="M29.871 6.026L16 .926 1.606 6.209v19.642L16 31.073l14.394-5.222V6.217l-.524-.192zm-14.404 23.72L2.672 25.104V7.357l12.795 4.642v17.747zM16 11.058L3.674 6.586 16 2.062 28.315 6.59 16 11.058zm13.328 14.046l-12.795 4.642V11.999l12.795-4.623v17.728z"/></svg>
